X: 30412
T: MARYLAND QUICKSTEP
C:
%R: quickstep, reel
B: Elias Howe "The Musician's Companion" Part 3 1844 p.41 #2
S: http://imslp.org/wiki/The_Musician's_Companion_(Howe,_Elias)
S: https://archive.org/stream/firstthirdpartof03howe/#page/66/mode/1up
Z: 2016 John Chambers <jc:trillian.mit.edu>
M: 2/4
L: 1/16
K: D
% - - - - - - - - - - - - - - - - - - - - - - - - -
DE |\
F2ED E2DE | F2ED E2DE | F2A2 Bcdc | B2E2 E2de |\
f2ed B2d2 | A2F2F2D2 | E3F E2DE | [A2F2]D2D2 :|
|: de |\
f2d2 dcde | f2d2 d2ge | b2e2 efge | b2e2 e2de |\
f2ed B2d2 | A2F2 F2D2 | E3F E2DE | F2D2D2 :|
% - - - - - - - - - - - - - - - - - - - - - - - - -


